.local/share/icons/Gruvbox-Plus-Dark/status/22/computer-fail.svg

<svg width="22" height="22" version="1.1" xmlns="http://www.w3.org/2000/svg">
  <rect transform="matrix(0,-1,-1,0,0,0)" x="-20.5" y="-17" width="16" height="12" rx="1" ry="1" fill="#282828" opacity=".2"/>
  <rect transform="matrix(0,-1,-1,0,0,0)" x="-20" y="-17" width="16" height="12" rx="1" ry="1" fill="#928374"/>
  <rect transform="matrix(0,-1,-1,0,0,0)" x="-18.5" y="-21" width="16" height="20" rx="1" ry="1" fill="#282828" opacity=".2"/>
  <rect transform="matrix(0,-1,-1,0,0,0)" x="-18" y="-21" width="16" height="20" rx="1" ry="1" fill="#504945"/>
  <rect transform="matrix(0,-1,-1,0,0,0)" x="-16" y="-19" width="12" height="16" rx="0" ry="0" fill="#cc241d"/>
  <path d="m8 7.5v2h1v-2zm5 0v2h1v-2zm-5 4v1h6v-1h-5zm6 1v1h1v-1zm-6 0h-1v1h1z" fill="#282828" opacity=".3"/>
  <path d="m8 7v2h1v-2zm5 0v2h1v-2zm-5 4v1h6v-1h-5zm6 1v1h1v-1zm-6 0h-1v1h1z" fill="#ebdbb2"/>
  <path d="m2 2c-0.554 0-1 0.446-1 1v0.5c0-0.554 0.446-1 1-1h18c0.554 0 1 0.446 1 1v-0.5c0-0.554-0.446-1-1-1z" fill="#ebdbb2" opacity=".2"/>
  <rect x="3" y="16" width="16" height=".5" fill="#ebdbb2" opacity=".2"/>
</svg>

<svg xmlns="http://www.w3.org/2000/svg" width="22" height="22" version="1.1">
 <rect style="opacity:0.2" width="16" height="12" x="-20.5" y="-17" rx="1" ry="1" transform="matrix(0,-1,-1,0,0,0)"/>
 <rect style="fill:#7c6f64" width="16" height="12" x="-20" y="-17" rx="1" ry="1" transform="matrix(0,-1,-1,0,0,0)"/>
 <rect style="opacity:0.2" width="16" height="20" x="-18.5" y="-21" rx="1" ry="1" transform="matrix(0,-1,-1,0,0,0)"/>
 <rect style="fill:#504945" width="16" height="20" x="-18" y="-21" rx="1" ry="1" transform="matrix(0,-1,-1,0,0,0)"/>
 <rect style="fill:#fb4934" width="12" height="16" x="-16" y="-19" rx="0" ry="0" transform="matrix(0,-1,-1,0,0,0)"/>
 <path style="opacity:0.2" d="m 8,7.5 v 2 h 1 v -2 z m 5,0 v 2 h 1 v -2 z m -5,4 v 1 h 1 4 1 v -1 H 13 9 Z m 6,1 v 1 h 1 v -1 z m -6,0 H 7 v 1 h 1 z"/>
 <path d="M 8,7 V 9 H 9 V 7 Z m 5,0 v 2 h 1 V 7 Z m -5,4 v 1 h 1 4 1 V 11 H 13 9 Z m 6,1 v 1 h 1 V 12 Z M 8,12 H 7 v 1 h 1 z" style="fill:#ebdbb2"/>
 <path style="opacity:0.1;fill:#ebdbb2" d="M 2,2 C 1.446,2 1,2.446 1,3 v 0.5 c 0,-0.554 0.446,-1 1,-1 h 18 c 0.554,0 1,0.446 1,1 V 3 C 21,2.446 20.554,2 20,2 Z"/>
 <rect style="opacity:0.1;fill:#ebdbb2" width="16" height=".5" x="3" y="16"/>
</svg>
